icons/tags.svg

<svg xmlns="http://www.w3.org/2000/svg" width="96" height="96"><path d="M76 8H52c-1.5 0-2.9.6-4 1.7L13.7 44 40 70.3 74.3 36c1.1-1.1 1.7-2.5 1.7-4V8zm0-8H52c-3.6 0-7.1 1.4-9.7 4L8 38.3c-1.5 1.5-2.3 3.6-2.3 5.7s.8 4.2 2.3 5.7L34.3 76c1.5 1.5 3.6 2.3 5.7 2.3s4.2-.8 5.7-2.3L80 41.7c2.6-2.6 4-6.1 4-9.7V8c0-2.1-.8-4.2-2.3-5.7C80.2.8 78.1 0 76 0zM60 20c0-2.208 1.792-4 4-4s4 1.792 4 4-1.792 4-4 4-4-1.792-4-4zM5.2 64.5c-.8-.7-1.2-1.7-1.2-2.8 0-1.1.4-2.1 1.2-2.8.7-.8 1.7-1.2 2.8-1.2 1.1 0 2.1.4 2.8 1.2L40 88l43.2-43.1c.7-.8 1.7-1.2 2.8-1.2 1.1 0 2.1.4 2.8 1.2.8.7 1.2 1.7 1.2 2.8 0 1.1-.4 2.1-1.2 2.8L45.7 93.7C44.2 95.2 42.1 96 40 96s-4.2-.8-5.7-2.3L5.2 64.5z" fill-rule="evenodd" fill="#454545"/></svg>

<?xml version="1.0" standalone="no"?><!-- Generator: Gravit.io --><svg xmlns="http://www.w3.org/2000/svg" xmlns:xlink="http://www.w3.org/1999/xlink" width="96" height="96"><path d=" M 76 8 L 52 8 C 50.5 8 49.1 8.6 48 9.7 L 13.7 44 L 40 70.3 L 74.3 36 C 75.4 34.9 76 33.5 76 32 L 76 8 Z  M 76 0 L 52 0 C 48.4 0 44.9 1.4000000000000004 42.3 4 L 8 38.3 C 8 38.3 8 38.3 8 38.3 C 6.5 39.8 5.7 41.9 5.7 44 C 5.7 46.1 6.5 48.2 8 49.7 C 8 49.7 8 49.7 8 49.7 L 34.3 76 C 34.3 76 34.3 76 34.3 76 C 35.8 77.5 37.9 78.3 40 78.3 C 42.1 78.3 44.2 77.5 45.7 76 C 45.7 76 45.7 76 45.7 76 L 80 41.7 C 82.6 39.1 84 35.6 84 32 L 84 8 C 84 5.9 83.2 3.8 81.7 2.3 C 80.2 0.7999999999999998 78.1 0 76 0 Z  M 60 20 C 60 17.79233988198995 61.792339881989946 16 64 16 C 66.20766011801005 16 68 17.79233988198995 68 20 C 68 22.207660118010047 66.20766011801005 24 64 24 C 61.79233988198995 24 60 22.20766011801005 60 20 Z  M 5.2 64.5 C 4.4 63.8 4 62.8 4 61.7 C 4 60.6 4.4 59.6 5.2 58.900000000000006 C 5.9 58.1 6.9 57.7 8 57.7 C 9.1 57.7 10.1 58.1 10.8 58.900000000000006 L 40 88 L 83.2 44.900000000000006 C 83.9 44.1 84.9 43.7 86 43.7 C 87.1 43.7 88.1 44.1 88.8 44.900000000000006 C 89.6 45.6 90 46.6 90 47.7 C 90 48.800000000000004 89.6 49.800000000000004 88.8 50.5 L 45.7 93.7 C 45.7 93.7 45.7 93.7 45.7 93.7 C 44.2 95.2 42.1 96 40 96 C 37.9 96 35.8 95.2 34.3 93.7 C 34.3 93.7 34.3 93.7 34.3 93.7 L 5.2 64.5 Z " fill-rule="evenodd" fill="#454545" stroke="none"/><mask id="_mask_YKiEqjY5tblMxc5QudXNQ8lJxM5vw3Qn"><path d=" M 76 8 L 52 8 C 50.5 8 49.1 8.6 48 9.7 L 13.7 44 L 40 70.3 L 74.3 36 C 75.4 34.9 76 33.5 76 32 L 76 8 Z  M 76 0 L 52 0 C 48.4 0 44.9 1.4000000000000004 42.3 4 L 8 38.3 C 8 38.3 8 38.3 8 38.3 C 6.5 39.8 5.7 41.9 5.7 44 C 5.7 46.1 6.5 48.2 8 49.7 C 8 49.7 8 49.7 8 49.7 L 34.3 76 C 34.3 76 34.3 76 34.3 76 C 35.8 77.5 37.9 78.3 40 78.3 C 42.1 78.3 44.2 77.5 45.7 76 C 45.7 76 45.7 76 45.7 76 L 80 41.7 C 82.6 39.1 84 35.6 84 32 L 84 8 C 84 5.9 83.2 3.8 81.7 2.3 C 80.2 0.7999999999999998 78.1 0 76 0 Z  M 60 20 C 60 17.79233988198995 61.792339881989946 16 64 16 C 66.20766011801005 16 68 17.79233988198995 68 20 C 68 22.207660118010047 66.20766011801005 24 64 24 C 61.79233988198995 24 60 22.20766011801005 60 20 Z  M 5.2 64.5 C 4.4 63.8 4 62.8 4 61.7 C 4 60.6 4.4 59.6 5.2 58.900000000000006 C 5.9 58.1 6.9 57.7 8 57.7 C 9.1 57.7 10.1 58.1 10.8 58.900000000000006 L 40 88 L 83.2 44.900000000000006 C 83.9 44.1 84.9 43.7 86 43.7 C 87.1 43.7 88.1 44.1 88.8 44.900000000000006 C 89.6 45.6 90 46.6 90 47.7 C 90 48.800000000000004 89.6 49.800000000000004 88.8 50.5 L 45.7 93.7 C 45.7 93.7 45.7 93.7 45.7 93.7 C 44.2 95.2 42.1 96 40 96 C 37.9 96 35.8 95.2 34.3 93.7 C 34.3 93.7 34.3 93.7 34.3 93.7 L 5.2 64.5 Z " fill-rule="evenodd" fill="white" stroke="none"/></mask><path d=" M 76 8 L 52 8 C 50.5 8 49.1 8.6 48 9.7 L 13.7 44 L 40 70.3 L 74.3 36 C 75.4 34.9 76 33.5 76 32 L 76 8 Z  M 76 0 L 52 0 C 48.4 0 44.9 1.4000000000000004 42.3 4 L 8 38.3 C 8 38.3 8 38.3 8 38.3 C 6.5 39.8 5.7 41.9 5.7 44 C 5.7 46.1 6.5 48.2 8 49.7 C 8 49.7 8 49.7 8 49.7 L 34.3 76 C 34.3 76 34.3 76 34.3 76 C 35.8 77.5 37.9 78.3 40 78.3 C 42.1 78.3 44.2 77.5 45.7 76 C 45.7 76 45.7 76 45.7 76 L 80 41.7 C 82.6 39.1 84 35.6 84 32 L 84 8 C 84 5.9 83.2 3.8 81.7 2.3 C 80.2 0.7999999999999998 78.1 0 76 0 Z  M 60 20 C 60 17.79233988198995 61.792339881989946 16 64 16 C 66.20766011801005 16 68 17.79233988198995 68 20 C 68 22.207660118010047 66.20766011801005 24 64 24 C 61.79233988198995 24 60 22.20766011801005 60 20 Z  M 5.2 64.5 C 4.4 63.8 4 62.8 4 61.7 C 4 60.6 4.4 59.6 5.2 58.900000000000006 C 5.9 58.1 6.9 57.7 8 57.7 C 9.1 57.7 10.1 58.1 10.8 58.900000000000006 L 40 88 L 83.2 44.900000000000006 C 83.9 44.1 84.9 43.7 86 43.7 C 87.1 43.7 88.1 44.1 88.8 44.900000000000006 C 89.6 45.6 90 46.6 90 47.7 C 90 48.800000000000004 89.6 49.800000000000004 88.8 50.5 L 45.7 93.7 C 45.7 93.7 45.7 93.7 45.7 93.7 C 44.2 95.2 42.1 96 40 96 C 37.9 96 35.8 95.2 34.3 93.7 C 34.3 93.7 34.3 93.7 34.3 93.7 L 5.2 64.5 Z " fill-rule="evenodd" fill="none" stroke="none" stroke-width="16" mask="url(#_mask_YKiEqjY5tblMxc5QudXNQ8lJxM5vw3Qn)"/></svg>
